svg/selection_multiple.svg

<?xml version="1.0" encoding="UTF-8"?><!DOCTYPE svg PUBLIC "-//W3C//DTD SVG 1.1//EN" "http://www.w3.org/Graphics/SVG/1.1/DTD/svg11.dtd"><svg xmlns="http://www.w3.org/2000/svg" xmlns:xlink="http://www.w3.org/1999/xlink" version="1.1" id="mdi-selection-multiple" width="24" height="24" viewBox="0 0 24 24"><path d="M11 6V4H15V6H11M6 9H8V13H6V9M6 6C6 4.89 6.9 4 8 4H9V6H8V7H6V6M8 18C6.89 18 6 17.1 6 16V15H8V16H9V18H8M18 4C19.11 4 20 4.9 20 6V7H18V6H17V4H18M15 16V18H11V16H15M20 13H18V9H20V13M20 16C20 17.11 19.1 18 18 18H17V16H18V15H20V16M3 8H4V20H16V21C16 21.54 15.57 22 15.03 22H15L3 22C2.45 22 2 21.55 2 21V9C2 8.45 2.45 8 3 8Z" /></svg>

<svg xmlns="http://www.w3.org/2000/svg" viewBox="0 0 24 24"><path d="M11 6V4h4v2zM6 9h2v4H6zm0-3a2 2 0 0 1 2-2h1v2H8v1H6zm2 12a2 2 0 0 1-2-2v-1h2v1h1v2zM18 4a2 2 0 0 1 2 2v1h-2V6h-1V4zm-3 12v2h-4v-2zm5-3h-2V9h2zm0 3a2 2 0 0 1-2 2h-1v-2h1v-1h2zM3 8h1v12h12v1c0 .54-.43 1-.97 1H3c-.55 0-1-.45-1-1V9c0-.55.45-1 1-1"/></svg>
